app/src/main/assets/xmp_presets/moody_blues.xmp
<?xml version="1.0" encoding="UTF-8"?>
<x:xmpmeta xmlns:x="adobe:ns:meta/" x:xmptk="StudioRoom RAZRAW v3">
 <rdf:RDF xmlns:rdf="http://www.w3.org/1999/02/22-rdf-syntax-ns#">
  <rdf:Description rdf:about=""
    xmlns:crs="http://ns.adobe.com/camera-raw-settings/1.0/"
    crs:Exposure2012="-0.40"
    crs:Contrast2012="+20"
    crs:Highlights2012="-40"
    crs:Shadows2012="-20"
    crs:Whites2012="-10"
    crs:Blacks2012="-30"
    crs:HueAdjustmentBlue="+10"
    crs:SaturationAdjustmentBlue="+25"
    crs:LuminanceAdjustmentBlue="-10"
    crs:HueAdjustmentAqua="+5"
    crs:SaturationAdjustmentAqua="+15"
    crs:HueAdjustmentRed="-10"
    crs:SaturationAdjustmentRed="-20"/>
 </rdf:RDF>
</x:xmpmeta>
