app/src/main/assets/xmp_presets/soft_portrait.xmp
<?xml version="1.0" encoding="UTF-8"?>
<x:xmpmeta xmlns:x="adobe:ns:meta/" x:xmptk="StudioRoom RAZRAW v3">
 <rdf:RDF xmlns:rdf="http://www.w3.org/1999/02/22-rdf-syntax-ns#">
  <rdf:Description rdf:about=""
    xmlns:crs="http://ns.adobe.com/camera-raw-settings/1.0/"
    crs:Exposure2012="+0.20"
    crs:Contrast2012="-15"
    crs:Highlights2012="-25"
    crs:Shadows2012="+30"
    crs:Whites2012="+10"
    crs:Blacks2012="+5"
    crs:HueAdjustmentRed="+5"
    crs:SaturationAdjustmentRed="-10"
    crs:LuminanceAdjustmentRed="+10"
    crs:HueAdjustmentOrange="+10"
    crs:SaturationAdjustmentOrange="-15"
    crs:LuminanceAdjustmentOrange="+15"/>
 </rdf:RDF>
</x:xmpmeta>
